X:1
T:LORD, My Petition Heed
T:Tune: William F. Sherwin, 1826-1888 Text and harmonization under copyright; for copyrighted material see Psalter Hymnal 86
T:664 6664 MASON www.hymnary.org/text/lord_my_petition_heed
T:LORD, My Petition Heed
T:This music is in the public domain. You may freely use this score for personal and congregational worship. If you reproduce the score, please credit Hymnary.org as the source. 
T:This music is in the public domain. You may freely use this score for personal and congregational worship. If you reproduce the score, please credit Hymnary.org as the source. 
Z:This music is in the public domain. You may freely use this score for personal and congregational worship. If you reproduce the score, please credit Hymnary.org as the source.
L:1/8
M:4/4
K:F
V:1 treble nm="SOPRANO ALTO" snm="S. A."
V:1
 A4 G2 F2 | F3 E E4 | F4 G2 A2 | c3 B A4 | G4 F2 D2 | C8 | G4 G2 A2 | B3 A G4 | E4 F2 G2 |1 %9
 A3 G F4 | G4 A2 B2 | c3 d c4 | A4 F2 G2 | F8 |] %14

